X:1
T:Title
%%score { ( 1 4 5 ) | ( 2 3 ) }
L:1/8
M:12/8
K:G
V:1 bass nm="Grand Piano"
V:4 bass 
V:5 bass 
V:2 bass 
V:3 bass 
V:1
 z6 z3[Q:1/4=126] D,E,F, | G,3 D[K:treble]EF G3 G2 G | F3 F3 F3[K:bass] D,G,A, | %3
 B,3[K:treble] GAB c3 [DFc]2 [Fc] | [DGB]3 [Ac]3 [Bd]3 z3 | %5
 z3[K:bass] [F,CD][CE][K:treble][A,CF] [B,G]3 [G,D=F]2 [DF] | %6
 [G,CE]3 [Ec]3 [Ec]3 [CEA][D^GB][EAc] | [DGB]3 [G^c]2 [Gc] [Fd]3 [CDF]3 | [B,DG]6- [B,DG]3 z3 | %9
 d6 z6 | e6 c6 | B3 d2 e d3 G3 | A6- A3 z3 | [GB-]3 B3 z6 | c6 e6 | %15
 [Gd]3 [G^c]2 [Gc] [Fd]3 [CDF]3 |[M:9/8] G8- G |] %17
V:2
 z12 | z3 F,[G,C][D,A,C] [G,B,]3 [G,B,]2 [G,B,] | [D,A,C]3 [D,A,C]3 [D,A,C]3 z3 | %3
 z3[K:treble] [B,D][CD][G,DG] [A,CF]3[K:bass] z2 D | z3 D3 D3 D,E,F, | G,3 z G,D, G,3 z2 G, | %6
 z3 G,3 G,3 C,B,,A,, | D,3 [E,A,]2 [E,A,] [D,A,]3 D,3 | G,,6- G,,3 z3 | %9
 [G,B,G]3 [G,B,]2 [G,B,] [G,DG]3 [G,B,]3 | [C,C]3 [C,C]2 [C,C] C,3 C,3 | %11
 [G,DG]3 [G,B,G]2 [G,CG] [G,B,G]3[K:bass] [E,^C]3 | D,3 A,,A,,A,, D,3 z3 | %13
 G,2 G,- G,2[K:treble] [G,D] [G,B,G]3[K:bass] [=F,D]3 | [E,C]3 [E,C]2 [E,C] [C,C]3 [C,C]3 | %15
 [D,B,]3 [E,A,]2 [E,A,] [D,A,]3 D,3 |[M:9/8] z2 B, CCC B,3 |] %17
V:3
 x12 | z3 .D,3 z3 E,3 | x12 | z3[K:treble] .G,3 z3[K:bass] D,3 | G,6- G,3 z3 | z3 .D,3 z3 B,,3 | %6
 C,6- C,3 z3 | x12 | x12 | x12 | x12 | x9[K:bass] x3 | x12 | x5[K:treble] x4[K:bass] x3 | x12 | %15
 x12 |[M:9/8] G,,8- G,, |] %17
V:4
 x12 | x4[K:treble] x8 | x9[K:bass] x3 | x3[K:treble] x9 | x12 | x3[K:bass] x2[K:treble] x7 | x12 | %7
 x12 | x12 | z3 G2 G B3 G3 | G3 G2 G [EG]3 [EG]3 | x12 | [DF]3 [^CE][DF][EG] [DF]3 z3 | %13
 .D3 G2 G d3 [GB]3 | G3 G2 G G3 G3 | x12 |[M:9/8] [B,D]2 D EEE D3 |] %17
V:5
 x12 | x4[K:treble] x8 | x9[K:bass] x3 | x3[K:treble] x9 | x12 | x3[K:bass] x2[K:treble] x7 | x12 | %7
 x12 | x12 | x12 | x12 | x12 | x12 | z2 D- D2 z z6 | x12 | x12 |[M:9/8] x9 |] %17

